public/images/hashed/80cc48c07ca623e3a56687e0319a6ca6.svg

<?xml version="1.0" encoding="UTF-8"?>
<svg width="80px" height="80px" viewBox="0 0 80 80" version="1.1" xmlns="http://www.w3.org/2000/svg" xmlns:xlink="http://www.w3.org/1999/xlink">
    <!-- Generator: Sketch 64 (93537) - https://sketch.com -->
    <title>Icon-Architecture/64/Arch_AWS-Global-Accelerator_64</title>
    <desc>Created with Sketch.</desc>
    <defs>
        <linearGradient x1="0%" y1="100%" x2="100%" y2="0%" id="linearGradient-1">
            <stop stop-color="#4D27A8" offset="0%"></stop>
            <stop stop-color="#A166FF" offset="100%"></stop>
        </linearGradient>
    </defs>
    <g id="Icon-Architecture/64/Arch_AWS-Global-Accelerator_64" stroke="none" stroke-width="1" fill="none" fill-rule="evenodd">
        <g id="Icon-Architecture-BG/64/Networking-Content-Delivery" fill="url(#linearGradient-1)">
            <rect id="Rectangle" x="0" y="0" width="80" height="80"></rect>
        </g>
        <path d="M52.473,60.742875 C52.473,59.639875 51.576,58.742875 50.473,58.742875 C49.37,58.742875 48.473,59.639875 48.473,60.742875 C48.473,61.845875 49.37,62.742875 50.473,62.742875 C51.576,62.742875 52.473,61.845875 52.473,60.742875 L52.473,60.742875 Z M40.473,60.742875 C39.37,60.742875 38.473,61.639875 38.473,62.742875 C38.473,63.845875 39.37,64.742875 40.473,64.742875 C41.576,64.742875 42.473,63.845875 42.473,62.742875 C42.473,61.639875 41.576,60.742875 40.473,60.742875 L40.473,60.742875 Z M35.814,49.959875 C34.756,48.603875 33.868,46.803875 33.201,44.682875 C31.854,45.021875 30.612,45.450875 29.518,45.966875 C31.241,47.772875 33.392,49.159875 35.814,49.959875 L35.814,49.959875 Z M51.71,45.968875 C50.617,45.451875 49.375,45.022875 48.029,44.683875 C47.362,46.803875 46.472,48.603875 45.415,49.959875 C47.836,49.159875 49.988,47.772875 51.71,45.968875 L51.71,45.968875 Z M35.141,44.269875 C36.205,47.569875 37.813,49.774875 39.473,50.484875 L39.473,43.831875 C37.976,43.881875 36.521,44.029875 35.141,44.269875 L35.141,44.269875 Z M46.088,44.270875 C44.621,44.014875 43.07,43.864875 41.473,43.824875 L41.473,50.582875 C43.232,50.013875 44.963,47.757875 46.088,44.270875 L46.088,44.270875 Z M34.62,42.335875 C36.167,42.055875 37.798,41.886875 39.473,41.831875 L39.473,40.156875 L38.18,41.449875 L36.766,40.035875 L40.473,36.328875 L44.18,40.035875 L42.766,41.449875 L41.473,40.156875 L41.473,41.824875 C43.246,41.867875 44.975,42.040875 46.609,42.336875 C47.056,40.396875 47.327,38.181875 47.352,35.742875 L33.877,35.742875 C33.902,38.181875 34.173,40.396875 34.62,42.335875 L34.62,42.335875 Z M25.28,35.742875 C25.355,38.969875 26.428,41.946875 28.205,44.388875 C29.515,43.722875 31.026,43.174875 32.678,42.756875 C32.186,40.629875 31.902,38.262875 31.877,35.742875 L25.28,35.742875 Z M28.429,26.085875 C26.766,28.259875 25.66,30.879875 25.353,33.742875 L31.909,33.742875 C32.008,31.549875 32.311,29.494875 32.771,27.629875 C31.175,27.231875 29.711,26.713875 28.429,26.085875 L28.429,26.085875 Z M35.814,20.813875 C33.516,21.572875 31.452,22.851875 29.776,24.524875 C30.835,25.000875 32.034,25.392875 33.316,25.708875 C33.969,23.750875 34.82,22.089875 35.814,20.813875 L35.814,20.813875 Z M40.615,20.034875 C38.644,20.034875 36.594,22.302875 35.278,26.118875 C36.967,26.404875 38.767,26.560875 40.615,26.560875 C42.463,26.560875 44.262,26.404875 45.952,26.118875 C44.635,22.302875 42.585,20.034875 40.615,20.034875 L40.615,20.034875 Z M51.453,24.524875 C49.777,22.851875 47.713,21.572875 45.415,20.813875 C46.41,22.089875 47.26,23.750875 47.913,25.708875 C49.196,25.392875 50.394,25.000875 51.453,24.524875 L51.453,24.524875 Z M46.518,28.044875 C44.647,28.376875 42.656,28.560875 40.615,28.560875 C38.574,28.560875 36.583,28.376875 34.711,28.044875 C34.292,29.735875 34.005,31.644875 33.908,33.742875 L47.322,33.742875 C47.224,31.644875 46.937,29.735875 46.518,28.044875 L46.518,28.044875 Z M55.876,33.742875 C55.57,30.880875 54.464,28.259875 52.8,26.085875 C51.518,26.713875 50.054,27.231875 48.458,27.629875 C48.918,29.494875 49.221,31.549875 49.321,33.742875 L55.876,33.742875 Z M49.352,35.742875 C49.327,38.262875 49.043,40.629875 48.551,42.757875 C50.203,43.175875 51.714,43.723875 53.023,44.389875 C54.8,41.947875 55.874,38.970875 55.95,35.742875 L49.352,35.742875 Z M30.473,58.742875 C29.37,58.742875 28.473,59.639875 28.473,60.742875 C28.473,61.845875 29.37,62.742875 30.473,62.742875 C31.576,62.742875 32.473,61.845875 32.473,60.742875 C32.473,59.639875 31.576,58.742875 30.473,58.742875 L30.473,58.742875 Z M54.473,60.742875 C54.473,62.948875 52.679,64.742875 50.473,64.742875 C48.267,64.742875 46.473,62.948875 46.473,60.742875 C46.473,58.884875 47.752,57.331875 49.473,56.884875 L49.473,55.742875 L41.473,55.742875 L41.473,58.884875 C43.194,59.331875 44.473,60.884875 44.473,62.742875 C44.473,64.948875 42.679,66.742875 40.473,66.742875 C38.267,66.742875 36.473,64.948875 36.473,62.742875 C36.473,60.884875 37.752,59.331875 39.473,58.884875 L39.473,55.742875 L31.473,55.742875 L31.473,56.884875 C33.194,57.331875 34.473,58.884875 34.473,60.742875 C34.473,62.948875 32.679,64.742875 30.473,64.742875 C28.267,64.742875 26.473,62.948875 26.473,60.742875 C26.473,58.884875 27.752,57.331875 29.473,56.884875 L29.473,53.742875 L39.473,53.742875 L39.473,52.680875 C30.437,52.088875 23.262,44.569875 23.262,35.386875 C23.262,25.818875 31.046,18.034875 40.615,18.034875 C50.183,18.034875 57.967,25.818875 57.967,35.386875 C57.967,44.664875 50.641,52.243875 41.473,52.695875 L41.473,53.742875 L51.473,53.742875 L51.473,56.884875 C53.194,57.331875 54.473,58.884875 54.473,60.742875 L54.473,60.742875 Z M62.946,35.461875 C62.946,41.464875 60.609,47.107875 56.364,51.351875 L54.95,49.937875 C58.817,46.071875 60.946,40.930875 60.946,35.461875 C60.946,29.993875 58.817,24.852875 54.95,20.985875 C46.967,13.003875 33.979,13.003875 25.996,20.985875 C22.129,24.852875 20,29.993875 20,35.461875 C20,40.930875 22.129,46.071875 25.996,49.937875 L24.582,51.351875 C20.337,47.107875 18,41.464875 18,35.461875 C18,29.459875 20.337,23.815875 24.582,19.571875 C33.346,10.808875 47.602,10.809875 56.364,19.571875 C60.609,23.815875 62.946,29.459875 62.946,35.461875 L62.946,35.461875 Z" id="AWS-Global-Accelerator_Icon_64_Squid" fill="#FFFFFF"></path>
    </g>
</svg>

<svg xmlns="http://www.w3.org/2000/svg" width="80" height="80"><defs><linearGradient id="a" x1="0%" x2="100%" y1="100%" y2="0%"><stop offset="0%" stop-color="#4D27A8"/><stop offset="100%" stop-color="#A166FF"/></linearGradient></defs><g fill="none" fill-rule="evenodd"><path fill="url(#a)" d="M0 0h80v80H0z"/><path fill="#FFF" d="M52.473 60.743c0-1.103-.897-2-2-2s-2 .897-2 2 .897 2 2 2 2-.897 2-2Zm-12 0c-1.103 0-2 .897-2 2s.897 2 2 2 2-.897 2-2-.897-2-2-2ZM35.814 49.96c-1.058-1.356-1.946-3.156-2.613-5.277-1.347.339-2.589.768-3.683 1.284a15.367 15.367 0 0 0 6.296 3.993Zm15.896-3.991c-1.093-.517-2.335-.946-3.681-1.285-.667 2.12-1.557 3.92-2.614 5.276a15.38 15.38 0 0 0 6.295-3.991Zm-16.569-1.7c1.064 3.3 2.672 5.506 4.332 6.216v-6.653c-1.497.05-2.952.198-4.332.438Zm10.947.002a31.53 31.53 0 0 0-4.615-.446v6.758c1.759-.57 3.49-2.825 4.615-6.312ZM34.62 42.336a33.515 33.515 0 0 1 4.853-.504v-1.675L38.18 41.45l-1.414-1.414 3.707-3.707 3.707 3.707-1.414 1.414-1.293-1.293v1.668c1.773.043 3.502.216 5.136.512.447-1.94.718-4.155.743-6.594H33.877c.025 2.439.296 4.654.743 6.593Zm-9.34-6.593a15.245 15.245 0 0 0 2.925 8.646c1.31-.666 2.821-1.214 4.473-1.632-.492-2.127-.776-4.494-.801-7.014H25.28Zm3.149-9.657a15.263 15.263 0 0 0-3.076 7.657h6.556c.099-2.193.402-4.248.862-6.113-1.596-.398-3.06-.916-4.342-1.544Zm7.385-5.272a15.367 15.367 0 0 0-6.038 3.71c1.059.477 2.258.869 3.54 1.185.653-1.958 1.504-3.62 2.498-4.895Zm4.801-.78c-1.971 0-4.021 2.269-5.337 6.085 1.689.286 3.489.442 5.337.442 1.848 0 3.647-.156 5.337-.442-1.317-3.816-3.367-6.084-5.337-6.084Zm10.838 4.49a15.367 15.367 0 0 0-6.038-3.71c.995 1.276 1.845 2.937 2.498 4.895 1.283-.316 2.481-.708 3.54-1.184Zm-4.935 3.52a33.925 33.925 0 0 1-5.903.517c-2.041 0-4.032-.184-5.904-.516a29.39 29.39 0 0 0-.803 5.698h13.414c-.098-2.098-.385-4.007-.804-5.698Zm9.358 5.699a15.248 15.248 0 0 0-3.076-7.657c-1.282.628-2.746 1.146-4.342 1.544.46 1.865.763 3.92.863 6.113h6.555Zm-6.524 2c-.025 2.52-.309 4.887-.801 7.015 1.652.418 3.163.966 4.472 1.632a15.255 15.255 0 0 0 2.927-8.647h-6.598Zm-18.879 23c-1.103 0-2 .897-2 2s.897 2 2 2 2-.897 2-2-.897-2-2-2Zm24 2c0 2.206-1.794 4-4 4s-4-1.794-4-4c0-1.858 1.279-3.411 3-3.858v-1.142h-8v3.142c1.721.447 3 2 3 3.858 0 2.206-1.794 4-4 4s-4-1.794-4-4c0-1.858 1.279-3.411 3-3.858v-3.142h-8v1.142c1.721.447 3 2 3 3.858 0 2.206-1.794 4-4 4s-4-1.794-4-4c0-1.858 1.279-3.411 3-3.858v-3.142h10V52.68c-9.036-.592-16.211-8.111-16.211-17.294 0-9.568 7.784-17.352 17.353-17.352 9.568 0 17.352 7.784 17.352 17.352 0 9.278-7.326 16.857-16.494 17.309v1.047h10v3.142c1.721.447 3 2 3 3.858Zm8.473-25.281a22.32 22.32 0 0 1-6.582 15.89l-1.414-1.414a20.334 20.334 0 0 0 5.996-14.476 20.338 20.338 0 0 0-5.996-14.476c-7.983-7.982-20.971-7.982-28.954 0A20.338 20.338 0 0 0 20 35.462c0 5.469 2.129 10.61 5.996 14.476l-1.414 1.414A22.32 22.32 0 0 1 18 35.462a22.322 22.322 0 0 1 6.582-15.89c8.764-8.763 23.02-8.762 31.782 0a22.322 22.322 0 0 1 6.582 15.89Z"/></g></svg>
